src/images/icons/search.svg

<?xml version="1.0" encoding="UTF-8"?>
<svg width="16px" height="16px" viewBox="0 0 16 16" version="1.1" xmlns="http://www.w3.org/2000/svg" xmlns:xlink="http://www.w3.org/1999/xlink">
    <title>E8DEC149-3996-43C8-9357-5DE729F14267</title>
    <defs>
        <path d="M15.3502496,14.7013311 C15.4500832,14.7845257 15.5,14.892679 15.5,15.0257903 C15.5,15.1589017 15.4542431,15.2712145 15.3627288,15.3627288 C15.2712145,15.4542431 15.1589017,15.5 15.0257903,15.5 C14.892679,15.5 14.7845257,15.4500832 14.7013311,15.3502496 L10.6830283,11.8311148 C10.1505825,12.2470883 9.55158083,12.5715475 8.88602329,12.8044925 C8.22046576,13.0374375 7.53826955,13.1539101 6.83943428,13.1539101 C5.69134775,13.1539101 4.63061564,12.8710484 3.65723794,12.3053245 C2.68386023,11.7396005 1.91430961,10.9700499 1.34858569,9.99667221 C0.78286177,9.02329451 0.5,7.96672226 0.5,6.82695507 C0.5,5.68718789 0.78286177,4.63061564 1.34858569,3.65723794 C1.91430961,2.68386023 2.68386023,1.91430961 3.65723794,1.34858569 C4.63061564,0.78286177 5.68718789,0.5 6.82695507,0.5 C7.96672226,0.5 9.02329451,0.78286177 9.99667221,1.34858569 C10.9700499,1.91430961 11.7396005,2.68386023 12.3053245,3.65723794 C12.8710484,4.63061564 13.1539101,5.69134775 13.1539101,6.83943428 C13.1539101,7.6713809 13,8.46173045 12.6921797,9.21048253 C12.3843595,9.95923461 11.9475875,10.6247921 11.3818636,11.2071547 L15.3502496,14.7013311 Z M1.4484193,6.83943428 C1.4484193,7.80449264 1.68968399,8.69883527 2.17221298,9.52246256 C2.65474197,10.3460899 3.3078203,10.9991682 4.13144759,11.4816972 C4.95507488,11.9642262 5.85357737,12.2054908 6.82695507,12.2054908 C7.80033278,12.2054908 8.69883527,11.9642262 9.52246256,11.4816972 C10.3460899,10.9991682 10.9991682,10.3460899 11.4816972,9.52246256 C11.9642262,8.69883527 12.2054908,7.80033278 12.2054908,6.82695507 C12.2054908,5.85357737 11.9642262,4.95507488 11.4816972,4.13144759 C10.9991682,3.3078203 10.3460899,2.65474197 9.52246256,2.17221298 C8.69883527,1.68968399 7.80033278,1.4484193 6.82695507,1.4484193 C5.85357737,1.4484193 4.95507488,1.68968399 4.13144759,2.17221298 C3.3078203,2.65474197 2.65474197,3.3078203 2.17221298,4.13144759 C1.68968399,4.95507488 1.4484193,5.85773723 1.4484193,6.83943428 Z" id="path-1"></path>
    </defs>
    <g id="Controls" stroke="none" stroke-width="1" fill="none" fill-rule="evenodd">
        <g id="Icons" transform="translate(-121.000000, -393.000000)">
            <g id="Icon/Search" transform="translate(121.000000, 393.000000)">
                <mask id="mask-2" fill="white">
                    <use xlink:href="#path-1"></use>
                </mask>
                <use id="search" fill="#78868F" xlink:href="#path-1"></use>
            </g>
        </g>
    </g>
</svg>

<svg width="16" height="16" viewBox="0 0 16 16" xmlns="http://www.w3.org/2000/svg" xmlns:xlink="http://www.w3.org/1999/xlink">
  <defs>
    <path fill="currentColor" d="M15.35025 14.70133c.09983.0832.14975.19135.14975.32446 0 .13311-.04576.24542-.13727.33694-.09152.09151-.20383.13727-.33694.13727s-.24126-.04992-.32446-.14975l-4.0183-3.51914c-.53245.41598-1.13145.74044-1.797.97338-.66556.23295-1.34776.34942-2.0466.34942-1.14808 0-2.20881-.28286-3.1822-.84859-.97337-.56572-1.74292-1.33527-2.30864-2.30865C.78286 9.0233.5 7.96672.5 6.82696c0-1.13977.28286-2.19634.84859-3.16972.56572-.97338 1.33527-1.74293 2.30865-2.30865C4.63062.78286 5.68719.5 6.82696.5c1.13976 0 2.19633.28286 3.16971.84859.97338.56572 1.74293 1.33527 2.30865 2.30865.56573.97338.84859 2.0341.84859 3.1822 0 .83194-.15391 1.62229-.46173 2.37104-.30782.74875-.7446 1.41431-1.31032 1.99667l3.96839 3.49418zM1.44842 6.83943c0 .96506.24126 1.8594.7238 2.68303.48252.82363 1.1356 1.4767 1.95923 1.95924.82362.48253 1.72213.7238 2.6955.7238.97338 0 1.87189-.24127 2.69551-.7238.82363-.48253 1.4767-1.13561 1.95924-1.95924.48253-.82362.7238-1.72213.7238-2.6955 0-.97338-.24127-1.87189-.7238-2.69551-.48253-.82363-1.13561-1.4767-1.95924-1.95924-.82362-.48253-1.72213-.7238-2.6955-.7238-.97338 0-1.87189.24127-2.69551.7238-.82363.48253-1.4767 1.13561-1.95924 1.95924-.48253.82362-.7238 1.72629-.7238 2.70798z" id="search-a"/>
  </defs>
  <use xlink:href="#search-a" fill-rule="evenodd"/>
</svg>
